X:340
T: McGuire's Lament
N: O'Farrell's Pocket Companion v.4 (Sky ed. p.148)
N: "Irish"
M: 3/8
L: 1/8
Q: 80 % "slow"
R: blank
K: G
G/B/| d>ed| dBG| e>dB| A2G| G3- |G2 (3d/e/f/| gfg|
e>fg| agf| e2d| d3-|d2 (3d/e/f/| gfg| efg| abg| fdB|
Hg3-|g2 (3G/B/d/| efe/d/| efg/e/| dBG A2G| G3-|G2 ||
